X:16411
T:Tha Mi Sgith
T:Cutting Bracken
M:4/4
L:1/8
K:AMin
% A mixolydian/dorian/minor pentatonic
A2 a2  g<eg2 |e>dB>A G>AB<G|
A2 a2  g<eg2 |e>dB<e A2 A2:|
e>dB>A G>AB<G|e>dB<A B<dd2 |
e>dB<A G>AB<G|e>dB<e A2 A2:|
